src/images/socials/facebook.svg

<?xml version="1.0" ?><!DOCTYPE svg  PUBLIC '-//W3C//DTD SVG 1.1//EN'  'http://www.w3.org/Graphics/SVG/1.1/DTD/svg11.dtd'><svg height="100%" style="fill-rule:evenodd;clip-rule:evenodd;stroke-linejoin:round;stroke-miterlimit:2;" version="1.1" viewBox="0 0 512 512" width="100%" xml:space="preserve" xmlns="http://www.w3.org/2000/svg" xmlns:serif="http://www.serif.com/" xmlns:xlink="http://www.w3.org/1999/xlink"><g><path d="M512,256c0,-141.385 -114.615,-256 -256,-256c-141.385,0 -256,114.615 -256,256c0,127.777 93.616,233.685 216,252.89l0,-178.89l-65,0l0,-74l65,0l0,-56.4c0,-64.16 38.219,-99.6 96.695,-99.6c28.009,0 57.305,5 57.305,5l0,63l-32.281,0c-31.801,0 -41.719,19.733 -41.719,39.978l0,48.022l71,0l-11.35,74l-59.65,0l0,178.89c122.385,-19.205 216,-125.113 216,-252.89Z" style="fill:#1877f2;fill-rule:nonzero;"/><path d="M355.65,330l11.35,-74l-71,0l0,-48.022c0,-20.245 9.917,-39.978 41.719,-39.978l32.281,0l0,-63c0,0 -29.297,-5 -57.305,-5c-58.476,0 -96.695,35.44 -96.695,99.6l0,56.4l-65,0l0,74l65,0l0,178.89c13.033,2.045 26.392,3.11 40,3.11c13.608,0 26.966,-1.065 40,-3.11l0,-178.89l59.65,0Z" style="fill:#fff;fill-rule:nonzero;"/></g></svg>

<svg width="512" height="512" viewBox="0 0 512 512" fill="none" xmlns="http://www.w3.org/2000/svg">
<g clip-path="url(#clip0_1103_701)">
<path d="M512 256C512 114.615 397.385 0 256 0C114.615 0 0 114.615 0 256C0 383.777 93.616 489.685 216 508.89V330H151V256H216V199.6C216 135.44 254.219 100 312.695 100C340.704 100 370 105 370 105V168H337.719C305.918 168 296 187.733 296 207.978V256H367L355.65 330H296V508.89C418.385 489.685 512 383.777 512 256Z" fill="#FC4A6E"/>
<path d="M355.65 330L367 256H296V207.978C296 187.733 305.917 168 337.719 168H370V105C370 105 340.703 100 312.695 100C254.219 100 216 135.44 216 199.6V256H151V330H216V508.89C229.033 510.935 242.392 512 256 512C269.608 512 282.966 510.935 296 508.89V330H355.65Z" fill="white"/>
</g>
<defs>
<clipPath id="clip0_1103_701">
<rect width="512" height="512" fill="white"/>
</clipPath>
</defs>
</svg>
